!!!COM: Bach, Johann Sebastian
!!!OPR: Die Kunst der Fuge
!!!XEN: The Art of Fugue
!!!OTL:
!!!OMV: 17
!!!SCT: BWV 1080
!!!SCA: Thematisch-systematisches Verzeichnis der musikalischen Werke Johann Sebastian Bach: Bach-Werke-Verzeichnis (Schmieder)
!!!YOR: Bach Gesellschaft Edition xxv,1
!!!EED: Frances Bennion
!!!ENC: Frances Bennion
!!!CDT: 1685/3//-1750/7/28/
!!!OCY: Deutschland
!!!YEC: Copyright (c) 1994, 2000 Center for Computer Assisted Research in the Humanities
!!!YEM: Rights to all derivative editions reserved.
!!!YEM: Refer to licensing agreement for further details.
!!!YEN: United States of America
**kern	**kern
*k[b-]	*k[b-]
*d:	*d:
*clefG	*clefC
*M4/4	*M4/4
*tb32	*tb32
=1	=1
1r	4A
.	2D
.	[4F
=2	=2
1r	4F]
.	2A
.	[4B-
=3	=3
1r	4B-]
.	2A
.	[4G
=4	=4
1r	4G]
.	4..F
.	16E
.	8.F
.	16G
=5	=5
4cc	12A
.	12G
.	12A
2f	12B-
.	12A
.	12G
.	12F
.	12G
.	12E
[4a	12D
.	12E
.	12C#
=6	=6
4a]	12D
.	12A
.	12d
2cc	12c
.	12d
.	12B-
.	12A
.	12B-
.	12G
[4dd	12F
.	12G
.	12E
=7	=7
4dd]	12F
.	12D
.	12E
2cc	12F
.	12A
.	12G
.	12A
.	12B-
.	12c
[4b-	12d
.	12e
.	12c#
=8	=8
4b-]	12d
.	12D
.	6d
4..a	.
.	12c#
.	12e
.	12d
.	12e
16g	12f
8.a	12e
.	12f
16b	12d
=9	=9
12cc	4c
12b-	.
12cc	.
12dd	2F
12cc	.
12b-	.
12a	.
12b-	.
12g	.
12f	[4A
12g	.
12e	.
=10	=10
12f	4A]
12cc	.
12ff	.
12ee	2c
12ff	.
12dd	.
12cc	.
12dd	.
12b-	.
12a	[4d
12b-	.
12g	.
=11	=11
12a	4d]
12f	.
12g	.
12a	2c
12cc	.
12b-	.
12cc	.
12dd	.
12ee	.
12ff	[4B-
12gg	.
12ee	.
=12	=12
12ff	4B-]
12f	.
6ff	.
.	4..A
12ee	.
12gg	.
12ff	.
12gg	.
12aa	16G
12gg	8.A
12aa	.
12ff	16B
=13	=13
4ee	12c
.	12B
.	6c
2a	.
.	12d
.	12e
.	12d
.	12e
.	12f
[4cc	12e
.	12f
.	12g
=14	=14
4cc]	12f
.	12g
.	12a
2ee	12g
.	12a
.	12b-
.	12a
.	12g
.	6a
[4ff	.
.	12f
.	12d
=15	=15
4ff]	12B-
.	12A
.	6B-
2ee	.
.	12g
.	12B-
.	12A
.	12G
.	6A
[4dd	.
.	12f
.	12A
=16	=16
4dd]	12G
.	12F
.	6G
4..cc	.
.	12e
.	12G
.	12F
.	12E
16b	6F
8.cc	.
.	12E
16dd	12D
=17	=17
12ee	8.G
12dd	.
6ee	16E
.	4C
12ff	.
12gg	.
12ff	4r
12gg	.
12aa	.
12gg	[4c
12aa	.
12bb-	.
=18	=18
12aa	12c]
12bb-	24B-
.	24A
12ccc	24G
.	24F
12bb-	4..e
12ccc	.
12ddd	.
12ccc	.
12bb-	.
6ccc	16c
.	[4f
12aa	.
12ff	.
=19	=19
12dd	4f]
12cc	.
6dd	.
.	4e
12bb-	.
12dd	.
12cc	4e-
12b-	.
6cc	.
.	4d
12aa	.
12cc	.
=20	=20
12b-	4d-
12a	.
6b-	.
.	4..c
12gg	.
12b-	.
12a	.
12g	.
6a	16f
.	12B
12g	12c#
12f	[12d
=21	=21
8.b-	12d]
.	24c#
.	24B
16g	12c#
4e	12r
.	24b-
.	24a
.	24g
.	24f
4r	24e
.	24f
.	24g
.	24f
.	24e
.	24d
[4ee	12c#
.	12e
.	12g
=22	=22
12ee]	12A
24dd	12c#
24cc#	.
24b	12e
24a	.
4..gg	12r
.	12c#
.	12d
.	12e
.	12f
16ee	8g
[4aa	.
.	24f
.	24e
.	24f
.	24g
.	24e
=23	=23
4aa]	24f
.	24e
.	24d
.	24c#
.	6d
4gg#	.
.	12c#
.	12B
4gg	24c#
.	24B
.	24A
.	24B
.	6c
4ff#	.
.	12B
.	12A
=24	=24
4ff	24B
.	24A
.	24G
.	24A
.	6B-
4..ee	.
.	12A
.	12G#
.	4.A
16aa	.
12dd	.
12ee	.
.	16r
[12ff	16g#
=25	=25
12ff]	8.a
24ee	.
24dd	.
12ee	16A
12r	3d
24ddd	.
24ccc	.
24bb-	.
24aa	.
24gg	.
24aa	.
24bb-	12c#
24aa	.
24gg	12d
24ff	.
12ee	[4g
12gg	.
12bb-	.
=26	=26
12cc#	12g]
12ee	24f
.	24e
12gg	24d
.	24c#
12r	4..b-
12ee	.
12ff	.
12gg	.
12aa	.
8bb-	16d
.	12c#
24aa	.
24gg	12d
24aa	.
24bb-	[12e
24gg	.
=27	=27
24aa	12e]
24gg	.
24ff	12a
24ee	.
6ff	12d
.	4..g
12ee	.
12dd#	.
24ee	.
24dd	.
24cc	.
24dd	.
6ee-	16A
.	[4f
12dd	.
12cc#	.
=28	=28
24dd	8.f]
24cc	.
24b-	.
24cc	.
6dd-	16G
.	3e
12cc	.
12b	.
4.cc	.
.	12d
.	12c
.	12d
.	12e
16r	.
16bb	12f
=29	=29
8.ccc	12e
.	12A
16cc	8r
3ff	.
.	24b-
.	24a
.	24g
.	24f
.	24e
.	6..d
12ee	.
12ff	.
[4bb-	.
.	24f
.	24g
.	24f
.	24e
.	24d
=30	=30
12bb-]	12c#
24aa	12d
24gg	.
24ff	12e
24ee	.
4..ddd	24f
.	24e
.	24d
.	24e
.	12f
.	12g
.	12a
16ff	6b-
12ee	.
12ff	12a
[12gg	12g
=31	=31
12gg]	24a
.	24g
12ccc	24f
.	24e
12ff	6f
4..bb-	.
.	12g
.	12f
.	12e
.	12d
16cc	6e
[4aa	.
.	24d
.	24c
.	24B-
.	24A
=32	=32
8.aa]	12d
.	12c#
16b-	6d
3gg	.
.	12e
.	12d
.	12c#
12ff	12d
12ee	12e
12ff	12A
12gg	12c#
12aa	12B
=33	=33
12gg	24c#
.	24d
12cc#	24e
.	24f
8r	24g
.	24e
.	24f
24ddd	24g
24ccc#	12a
24bb	.
24aa	12c#
24gg	.
6..ff	24d
.	24f
.	24e
.	24d
.	24c#
.	24B
.	12A
24aa	.
24bb-	12c#
24aa	.
24gg	12e
24ff	.
=34	=34
12ee	3..a
12ff	.
12gg	.
24aa	.
24gg	.
24ff	.
24gg	.
12aa	.
12bb	.
12ccc#	12g
6ddd	12f
.	[4e
12ccc	.
12bb	.
=35	=35
24ccc	8.e]
24bb	.
24aa	.
24gg#	.
6aa	16a
.	4..d
12bb-	.
12aa	.
12gg	.
12ff#	.
6gg	16b-
.	12c#
24ff	12e
24ee	.
24dd	12a
24cc#	.
=36	=36
12ff	8.A
12ee	.
6ff	16d
.	3B-
12gg	.
12ff	.
12ee	.
12ff	12A
12gg	12G
12cc	[4A
12ee	.
12dd	.
=37	=37
24ee	12A]
24ff	.
24gg	12e
24aa	.
24bb-	12c
24gg	.
24aa	12r
24bb-	.
12ccc	12a
12ee	12g
24ff	6..f
24aa	.
24gg	.
24ff	.
24ee	.
24dd	.
12cc	.
.	24a
12ee	24g
.	24f
12gg	24e
.	24d
=38	=38
3..ccc	24c
.	24B-
.	24A
.	24B-
.	24c
.	24d
.	24e
.	24d
.	24e
.	24f#
.	24g
.	24e
.	24f#
.	24d
12bb-	24e
.	24f#
12aa	24g
.	24a
[4gg	24b-
.	24a
.	24g
.	24f
.	24e
.	24d
=39	=39
8.gg]	24c
.	24e
.	24g
.	24b-
16ccc	24a
.	24g
4..ff	24a
.	24g
.	24f
.	24e
.	24d
.	24c
.	24B-
.	24c
.	24B-
.	24A
16ddd	24G
.	24F
12ee	24G
.	24B-
12gg	24A
.	24G
12ccc#	24F
.	24E
=40	=40
4a	24F
.	24D
.	24E
.	24F
.	24G
.	24A
2d	12B-
.	12A
.	12G
.	12F
.	12G
.	12E
[4f	12D
.	12E
.	12C#
=41	=41
4f]	24D
.	24E
.	24F
.	24G
.	24A
.	24B-
2a	12c
.	12d
.	12B-
.	12A
.	12B-
.	12G
[4b-	12F
.	12G
.	12E
=42	=42
4b-]	24F
.	24A
.	24B-
.	24c
.	24d
.	24e
2a	12f
.	12g
.	12e
.	12d
.	12c#
.	12d
[4g	12e
.	12f
.	12d
=43	=43
4g]	12c#
.	12B
.	12c#
4..f	12d
.	12e
.	12c
.	2B-
16e	.
8.f	.
16g	.
=44	=44
12a	4A
12g	.
12a	.
12b-	2D
12a	.
12g	.
12f	.
12g	.
12e	.
12d	[4F
12e	.
12c#	.
=45	=45
12d	4F]
12a	.
12dd	.
12cc	2A
12dd	.
12b-	.
12a	.
12b-	.
12g	.
12f	[4B-
12g	.
12e	.
=46	=46
12f	4B-]
12d	.
12e	.
12f	2A
12a	.
12g	.
12a	.
12b	.
12cc#	.
12dd	[4G
12ee	.
12cc#	.
=47	=47
12dd	4G]
12d	.
6dd	.
.	4..F
12cc#	.
12ee	.
12dd	.
12ee	.
12ff	16E
12ee	8.F
12ff	.
12dd	16G
=48	=48
4cc	12A
.	12G
.	12A
2f	12B-
.	12A
.	12G
.	12F
.	12G
.	12E
[4a	12D
.	12E
.	12C#
=49	=49
4a]	12D
.	12A
.	12d
2cc	12c
.	12d
.	12B-
.	12A
.	12B-
.	12G
[4dd	12F
.	12G
.	12E
=50	=50
4dd]	12F
.	12D
.	12E
2cc	12F
.	12A
.	12G
.	12A
.	12B-
.	12c
[4b-	12d
.	12e
.	12c#
=51	=51
4b-]	12d
.	12D
.	6d
4..a	.
.	12c#
.	12e
.	12d
.	12e
16g	12f
8.a	12e
.	12f
16b	12d
=52	=52
12cc	4c
12b	.
6cc	.
.	2F
12dd	.
12ee	.
12dd	.
12ee	.
12ff	.
12ee	[4A
12ff	.
12gg	.
=53	=53
12ff	4A]
12gg	.
12aa	.
12gg	2c
12aa	.
12bb-	.
12aa	.
12gg	.
6aa	.
.	[4d
12ff	.
12dd	.
=54	=54
12b-	4d]
12a	.
6b-	.
.	2c
12gg	.
12b-	.
12a	.
12g	.
6a	.
.	[4B-
12ff	.
12a	.
=55	=55
12g	4B-]
12f	.
6g	.
.	4..A
12ee	.
12g	.
12f	.
12e	.
6f	16G
.	8.A
12e	.
12d	16B
=56	=56
8.g	12c
.	12B
16e	6c
4c	.
.	12d
.	12e
4r	12d
.	12e
.	12f
[4cc	12e
.	12f
.	12g
=57	=57
12cc]	12f
24b-	12g
24a	.
24g	12a
24f	.
4..ee	12g
.	12a
.	12b-
.	12a
.	12g
16cc	6a
[4ff	.
.	12f
.	12d
=58	=58
4ff]	12B-
.	12A
.	6B-
4ee	.
.	12g
.	12B-
4ee-	12A
.	12G
.	6A
4dd	.
.	12f
.	12A
=59	=59
4dd-	12G
.	12F
.	6G
4..cc	.
.	12e
.	12G
.	12F
.	12E
16ff	6F
12b	.
12cc	12E
[12dd	12D
=60	=60
12dd]	8.G
24cc	.
24b	.
12cc	16E
12r	4C
24bb-	.
24aa	.
24gg	.
24ff	.
24ee	4r
24ff	.
24gg	.
24ff	.
24ee	.
24dd	.
12cc	[4c
12ee	.
12gg	.
=61	=61
12a	12c]
12cc	24B-
.	24A
12ee	24G
.	24F
12r	4..e
12cc	.
12dd	.
12ee	.
12ff	.
8gg	16c
.	[4f
24ff	.
24ee	.
24ff	.
24gg	.
24ee	.
=62	=62
24ff	4f]
24ee	.
24dd	.
24cc#	.
6dd	.
.	4e
12cc	.
12b	.
24cc	4e-
24b	.
24a	.
24b	.
6cc	.
.	4d
12b-	.
12a	.
=63	=63
24b-	4d-
24a	.
24g	.
24a	.
6b-	.
.	4..c
12a	.
12g#	.
4.a	.
.	16f
.	12B
.	12c
16r	.
16gg#	[12d
=64	=64
8.aa	12d]
.	24c
.	24B
16a	12c
3dd	12r
.	24b-
.	24a
.	24g
.	24f
.	24e
.	24f
12cc#	24g
.	24f
12dd	24e
.	24d
[4gg	12c#
.	12e
.	12g
=65	=65
12gg]	12A
24ff	12c#
24ee	.
24dd	12e
24cc#	.
4..bb-	12r
.	12c#
.	12d
.	12e
.	12f
16dd	8g
12cc#	.
.	24f
12dd	24e
.	24f
[12ee	24g
.	24e
=66	=66
12ee]	24f
.	24e
12aa	24d
.	24c#
12dd	6d
4..gg	.
.	12c#
.	12B
.	24c#
.	24B
.	24A
.	24B
16a	6c
[4ff	.
.	12B
.	12A
=67	=67
8.ff]	24B
.	24A
.	24G
.	24A
16g	6B-
3ee	.
.	12A
.	12G#
.	4.A
12dd	.
12cc#	.
12dd	.
12ee	.
.	16r
12ff	16g#
=68	=68
12ee	8.a
12a	.
8r	16A
.	3d
24bb-	.
24aa	.
24gg	.
24ff	.
24ee	.
6..dd	.
.	12c#
.	12d
.	[4g
24ff	.
24gg	.
24ff	.
24ee	.
24dd	.
=69	=69
12cc#	12g]
12dd	24f
.	24e
12ee	24d
.	24c#
24ff	4..b-
24ee	.
24dd	.
24ee	.
12ff	.
12gg	.
12aa	.
6bb-	16d
.	12c#
12aa	12d
12gg	[12e
=70	=70
24aa	12e]
24gg	.
24ff	12a
24ee	.
6ff	12d
.	4..g
12gg	.
12ff	.
12ee	.
12dd#	.
6ee	16A
.	[4f
24dd	.
24cc	.
24b-	.
24a	.
=71	=71
12dd	8.f]
12cc#	.
6dd	16G
.	3e
12ee	.
12dd	.
12cc#	.
12dd	12d
12ee	12c#
12a	12d
12cc#	12e
12b	12f
=72	=72
24cc#	12e
24dd	.
24ee	12A
24ff	.
24gg	8r
24ee	.
24ff	.
24gg	24b-
12aa	24a
.	24g
12cc#	24f
.	24e
24dd	6..d
24ff	.
24ee	.
24dd	.
24cc#	.
24b	.
12a	.
.	24f
12cc#	24g
.	24f
12ee	24e
.	24d
=73	=73
3..aa	12c#
.	12d
.	12e
.	24f
.	24e
.	24d
.	24e
.	12f
.	12g
12gg	12a
12ff	6b-
[4ee	.
.	12a
.	12g
=74	=74
8.ee]	24a
.	24g
.	24f
.	24e
16aa	6f
4..dd	.
.	12g
.	12f
.	12e
.	12d
16bb-	6e
12cc#	.
12ee	24d
.	24c#
12aa	24B
.	24A
=75	=75
8.a	12d
.	12c#
16dd	6d
3b-	.
.	12e
.	12d
.	12c#
12a	12d
12g#	12e
[4a	12A
.	12c#
.	12B
=76	=76
12a]	24c#
.	24d
12ee	24e
.	24f
12cc#	24g
.	24e
12r	24f
.	24g
12aa	12a
12gg	12c#
6..ff	24d
.	24f
.	24e
.	24d
.	24c#
.	24B
.	12A
24aa	.
24gg	12c#
24ff	.
24ee	12e
24dd	.
=77	=77
24cc#	3..a
24b	.
24a	.
24b	.
24cc#	.
24dd	.
24ee	.
24dd	.
24ee	.
24ff	.
24gg	.
24ee	.
24ff	.
24dd	.
24ee	12g
24ff	.
24gg	12f
24aa	.
24bb-	[4e
24aa	.
24gg	.
24ff	.
24ee	.
24dd	.
=78	=78
24cc#	8.e]
24ee	.
24gg	.
24bb-	.
24aa	16a
24gg	.
24aa	4..d
24gg	.
24ff	.
24ee	.
24dd	.
24cc	.
24b-	.
24cc	.
24b-	.
24a	.
24g	16b-
24f	.
24g	12c#
24b-	.
24a	12e
24g	.
24f	12a
24e	.
=79	=79
16f	8A
16g	.
16f	4D
16e	.
16f	.
16b-	.
16a	4F
16g	.
16a	.
16dd	.
16cc#	4A
16b	.
16cc#	.
16ff	.
16ee	[8B-
16dd	.
=80	=80
16ee	8B-]
32ff	.
32gg	.
32ff	4A
32ee	.
32dd	.
32cc#	.
32dd	.
32ff	.
32gg	.
32aa	.
16bb-	4G
16dd	.
16cc#	.
16a	.
16dd	8.F
16cc#	.
[4dd	.
.	16E
.	16F
.	16G
=81	=81
4.dd]	2A
16d	.
16e	.
2e	2AA
=82	=82
1d	1DD
==	==
*-	*-
!!!RWG1: This file contains only pitch and duration data.
!!!RWG2: Transposing instruments are not transposed.
!!!RWG3: Spines may have incompatible meters.
!!!RWG4: Durations of rests and tied notes may be interpreted.
!!!RWG: Key is interpreted using the Humdrum key tool.
!!!AFT: stage1
!!!END: 1997/04/15/
!!format changes:
!!content changes:
!!public access: complete
!!!KEY: 631464737
!!!EMD: Converted from MuseData to Humdrum Dec 19, 2000, by Andreas Kornstaedt using muse2kern.
